svg/set/ISD/R.svg

<?xml version="1.0" encoding="UTF-8" standalone="no"?>
<svg xmlns="http://www.w3.org/2000/svg" xmlns:xlink="http://www.w3.org/1999/xlink" version="1.1" width="600" height="544.59271">
  <linearGradient x1="0" y1="0" x2="1" y2="0" id="linearGradient610" gradientUnits="userSpaceOnUse" gradientTransform="matrix(23.270309,33.23346,33.23346,-23.270309,155.06592,244.63379)" spreadMethod="pad">
    <stop style="stop-color:#8b723c" offset="0"/>
    <stop style="stop-color:#d2bb7b" offset="0.39999399"/>
    <stop style="stop-color:#ebd491" offset="0.5"/>
    <stop style="stop-color:#d2bb7b" offset="0.69999701"/>
    <stop style="stop-color:#8b723c" offset="1"/>
  </linearGradient>
  <linearGradient x1="0" y1="0" x2="1" y2="0" id="linearGradient2995" xlink:href="#linearGradient610" gradientUnits="userSpaceOnUse" gradientTransform="matrix(23.270309,33.23346,33.23346,-23.270309,155.06592,244.63379)" spreadMethod="pad"/>
  <linearGradient x1="0" y1="0" x2="1" y2="0" id="linearGradient2998" xlink:href="#linearGradient610" gradientUnits="userSpaceOnUse" gradientTransform="matrix(316.78932,-452.42224,452.42224,316.78932,141.33381,476.24239)" spreadMethod="pad"/>
  <path d="M 299.9725,544.59269 258.27449,429.7768 15.315138,472.0602 137.0875,392.23089 l -15.53295,-2.76353 0,-167.02349 L 101.99201,157.98416 0,212.07042 79.979053,43.01852 l 112.311007,0 0.78959,2.54572 L 299.9725,0 l 106.9337,45.56424 0.80374,-2.54572 112.31101,0 L 600,212.07042 498.00799,157.98416 l -19.57615,64.45971 0,167.02349 -15.51934,2.76353 121.77236,79.82931 -242.97296,-42.2834 -41.73885,114.81589 z"/>
  <path d="m 206.05327,58.22475 53.86844,23.12926 0,201.76503 -16.90791,-12.3474 -63.16643,-211.00857 -89.345115,0 -53.922899,113.97185 75.513844,-40.05078 26.16506,86.25485 0,155.6018 43.12743,7.65077 -89.345115,58.55147 177.138285,-30.79364 30.79364,84.66209 30.83448,-84.66209 177.08383,30.79364 -89.27704,-58.55147 43.12743,-7.65077 0,-155.6018 26.15145,-86.25485 75.45938,40.05078 -53.86844,-113.97185 -89.3315,0 -63.18005,211.00857 -16.96237,12.3474 0,-201.76503 53.9229,-23.12926 -93.96007,-40.03717 -93.91923,40.03717 z" style="fill:url(#linearGradient2998)"/>
</svg>

<?xml version="1.0" encoding="UTF-8" standalone="no"?>
<svg
   version="1.1"
   width="600"
   height="544.59271"
   id="svg6"
   xmlns:xlink="http://www.w3.org/1999/xlink"
   xmlns="http://www.w3.org/2000/svg"
   xmlns:svg="http://www.w3.org/2000/svg">
  <defs
     id="defs6" />
  <linearGradient
     x1="0"
     y1="0"
     x2="1"
     y2="0"
     id="linearGradient610"
     gradientUnits="userSpaceOnUse"
     gradientTransform="matrix(23.270309,33.23346,33.23346,-23.270309,155.06592,244.63379)"
     spreadMethod="pad">
    <stop
       style="stop-color:#8b723c"
       offset="0"
       id="stop1" />
    <stop
       style="stop-color:#d2bb7b"
       offset="0.39999399"
       id="stop2" />
    <stop
       style="stop-color:#ebd491"
       offset="0.5"
       id="stop3" />
    <stop
       style="stop-color:#d2bb7b"
       offset="0.69999701"
       id="stop4" />
    <stop
       style="stop-color:#8b723c"
       offset="1"
       id="stop5" />
  </linearGradient>
  <linearGradient
     x1="0"
     y1="0"
     x2="1"
     y2="0"
     id="linearGradient2995"
     xlink:href="#linearGradient610"
     gradientUnits="userSpaceOnUse"
     gradientTransform="matrix(23.270309,33.23346,33.23346,-23.270309,155.06592,244.63379)"
     spreadMethod="pad" />
  <linearGradient
     x1="0"
     y1="0"
     x2="1"
     y2="0"
     id="linearGradient2998"
     xlink:href="#linearGradient610"
     gradientUnits="userSpaceOnUse"
     gradientTransform="matrix(316.78932,-452.42224,452.42224,316.78932,141.33381,476.24239)"
     spreadMethod="pad" />
  <path
     d="M 299.9725,544.59269 258.27449,429.7768 15.315138,472.0602 137.0875,392.23089 121.55455,389.46736 V 222.44387 L 101.99201,157.98416 0,212.07042 79.979053,43.01852 H 192.29006 l 0.78959,2.54572 L 299.9725,0 406.9062,45.56424 407.70994,43.01852 H 520.02095 L 600,212.07042 498.00799,157.98416 478.43184,222.44387 V 389.46736 L 462.9125,392.23089 584.68486,472.0602 341.7119,429.7768 299.97305,544.59269 Z"
     id="path5" />
  <path
     d="m 206.05327,58.22475 53.86844,23.12926 V 283.11904 L 243.0138,270.77164 179.84737,59.76307 H 90.502255 l -53.922899,113.97185 75.513844,-40.05078 26.16506,86.25485 v 155.6018 l 43.12743,7.65077 -89.345115,58.55147 177.138285,-30.79364 30.79364,84.66209 30.83448,-84.66209 177.08383,30.79364 -89.27704,-58.55147 43.12743,-7.65077 v -155.6018 l 26.15145,-86.25485 75.45938,40.05078 -53.86844,-113.97185 h -89.3315 l -63.18005,211.00857 -16.96237,12.3474 V 81.35401 L 393.93257,58.22475 299.9725,18.18758 Z"
     style="fill:url(#linearGradient2998)"
     id="path6" />
</svg>
